frontend/assets/images/svgs/location.svg

<?xml version="1.0" encoding="UTF-8" standalone="no"?>
<svg width="25px" height="25px" viewBox="0 0 25 25" version="1.1" xmlns="http://www.w3.org/2000/svg" xmlns:xlink="http://www.w3.org/1999/xlink" xmlns:sketch="http://www.bohemiancoding.com/sketch/ns">
    <!-- Generator: Sketch 3.2 (9961) - http://www.bohemiancoding.com/sketch -->
    <title>Slice 1</title>
    <desc>Created with Sketch.</desc>
    <defs></defs>
    <g id="Page-1" stroke="none" stroke-width="1" fill="none" fill-rule="evenodd" sketch:type="MSPage">
        <path d="M12.654,0 C8.78785538,0 5.654,3.04916667 5.654,6.81 C5.654,7.80791667 5.93663795,8.87958333 6.27494702,9.785 L12.1551012,25 L13.1541835,25 L19.0878676,9.82666667 C19.4591511,8.73791667 19.654,7.7625 19.654,6.81 C19.6535718,3.04916667 16.5201446,0 12.654,0 L12.654,0 Z M12.6454352,11.65 C9.90341882,11.65 7.68000024,9.4875 7.68000024,6.82 C7.68000024,4.1525 9.90256234,1.98916667 12.6454352,1.98916667 C15.3861669,1.98916667 17.6095855,4.1525 17.6095855,6.82 C17.6095855,9.4875 15.3861669,11.65 12.6454352,11.65 L12.6454352,11.65 Z" id="Shape" fill="#4EC6DC" sketch:type="MSShapeGroup"></path>
    </g>
</svg>

<svg width="25" height="25" viewBox="0 0 25 25" xmlns="http://www.w3.org/2000/svg" xmlns:sketch="http://www.bohemiancoding.com/sketch/ns"><title>Slice 1</title><desc>Created with Sketch.</desc><path d="M12.654 0c-3.866 0-7 3.049-7 6.81 0 .998.283 2.07.621 2.975l5.88 15.215h.999l5.934-15.173c.371-1.089.566-2.064.566-3.017 0-3.761-3.134-6.81-7-6.81zm-.009 11.65c-2.742 0-4.965-2.162-4.965-4.83s2.223-4.831 4.965-4.831c2.741 0 4.964 2.163 4.964 4.831 0 2.668-2.223 4.83-4.964 4.83z" fill="#4EC6DC" sketch:type="MSShapeGroup"/></svg>
